X:16615
T:The Cuckoo's Nest
R:Hornpipe
S:Paddy Canny and Peter O'Loughlin, Clare (fiddles)
N:As played (P O'L much the louder)
Z:Bernie Stocks
H:Played after "The Plains Of Boyle".
M:4/4
K:G
dc |: BABA GBdg | fccB cedc | BABG FGAB | c2A2 A2dc | BABA GBdg | 
fccB cedc | BABG FGAc |1 B2G2 G2dc :|2  B2G2 G2Bc |: dBGB dBGB | 
dBcA G2AB | cAFA cAFA | dcBA ~G3A | BGBd gabg | afdB cedc | 
BABG FGAc | B2G2 G2Bc :: d2g2 gabg | afd^c d3e | =f2de fgaf | 
gfdB c2dc | BGBd gabg | afdB cedc | BABG FGAc | B2G2 G2Bc :|
